!!!COM: Jan Pieterszoon Sweelinck
!!!OTL: Canon ueber "O Mensch, bewein' dein Suende gross"
!!!ONB: In der Quint oben, nach einem gantzen Tact.
!!!ONB: Canon at the fifth below, following a whole note.
!!!YOR: Sweelinck, "Werken" Vol. X; Ed. Hermann Gehrmann
!!!YOR: Leipzig: Breitkopf & Haertel, 1901; pp. 76-77.
**kern	**kern	**kern
*CF	*conseq	*guida
*k[b-]	*k[b-]	*k[b-]
*M4/2	*M4/2	*M4/2
=1-	=1-	=1-
1F	1r	2r
.	.	2cc
1F	2r	2.a
.	2f	.
.	.	4a
=2	=2	=2
1G	2.d	4g
.	.	4a
.	.	4b-
.	4d	4g
1A	4c	1cc
.	4d	.
.	4e	.
.	4c	.
=3	=3	=3
1F	1f	2r
.	.	2cc
1A	2r	2cc
.	2f	2a
=4	=4	=4
1B-	2f	2.dd
.	2d	.
.	.	4dd
1c	2.g	4ee
.	.	4ff
.	.	2gg
.	4g	.
=5	=5	=5
1c	4a	2cc
.	4b-	.
.	2cc	4r
.	.	4a
1B-	2f	2b-
.	4r	[2g
.	4d	.
=6	=6	=6
1A	2e	2g]
.	1c	2f#
1G	.	1g
.	2Bn	.
=7	=7	=7
1F	1c	2r
.	.	2cc
1A	2r	2cc
.	2f	2cc
=8	=8	=8
1B-	2f	2b-
.	2f	2dd
1c	2e	2.cc
.	2g	.
.	.	4cc
=9	=9	=9
1d	2.f	4b-
.	.	4a
.	.	2b-
.	4f	.
1c	4e	2cc
.	4d	.
.	2e	2a
=10	=10	=10
1B-	2f	2r
.	2d	2g
1A	2r	2.cc
.	2c	.
.	.	4b-
=11	=11	=11
1F	2.f	4a
.	.	4g
.	.	2.f
.	4e	.
1G	4d	.
.	4c	8e
.	.	8d
.	[2B-	2e
=12	=12	=12
1F	4B-]	2f
.	8A	.
.	8G	.
.	2A	4r
.	.	4f
1r	2B-	2g
.	4r	2g
.	4B-	.
=13	=13	=13
1F	2c	2.a
.	2c	.
.	.	4g
1F	2.d	4f
.	.	4g
.	.	2a
.	4c	.
=14	=14	=14
1G	4B-	2.g
.	4c	.
.	2d	.
.	.	4f
1A	2.c	4e
.	.	4d
.	.	2e
.	4B-	.
=15	=15	=15
1F	4A	2r
.	4G	.
.	2A	2.cc
1A	2r	.
.	.	8dd
.	.	8ee
.	[2f	4ff
.	.	4ee
=16	=16	=16
1B-	4f]	4dd
.	8g	8ee
.	8a	8ff
.	4b-	4gg
.	4a	4ff
1c	4g	4ee
.	8a	4dd
.	8b-	.
.	4cc	2ee
.	4b-	.
=17	=17	=17
1c	4a	2r
.	4g	.
.	2a	1aa
1B-	2r	.
.	[2dd	2gg
=18	=18	=18
1A	2dd]	3ff
.	.	3ee
.	2cc	.
.	.	3ff#
1G	3b-	2gg
.	3a	.
.	.	2g
.	3bn	.
=19	=19	=19
1F	2cc	2r
.	2c	2cc
1A	2r	4cc
.	.	4cc
.	2f	2a
=20	=20	=20
1B-	4f	4r
.	4f	4dd
.	2d	4dd
.	.	4gg
1c	4r	4.ee
.	4g	.
.	.	8dd
.	4g	[2cc
.	4cc	.
=21	=21	=21
1d	4.a	2cc]
.	8g	.
.	1f	2bn
1c	.	2cc
.	2e	[2a
=22	=22	=22
1B-	2f	2a]
.	1d	2g
1A	.	4a
.	.	8g
.	.	8f
.	2c	8e
.	.	8d
.	.	4e
=23	=23	=23
1F	4d	2f
.	8c	.
.	8B-	.
.	8A	4r
.	8G	.
.	4A	2ff
1G	2B-	.
.	.	8ee
.	.	8dd
.	4r	2ee
.	[4b-	.
=24	=24	=24
1F	4b-]	2dd
.	8a	.
.	8g	.
.	2a	2cc
1r	2g	2r
.	2f	2cc
=25	=25	=25
1f	2r	2.a
.	2f	.
.	.	4a
1f	2.d	2a
.	.	2a
.	4d	.
=26	=26	=26
1f	2d	2dd
.	2d	4r
.	.	4dd
1e	2g	2ee
.	4r	[2gg
.	4g	.
=27	=27	=27
1c	2a	4gg]
.	.	2ff
.	2.cc	.
.	.	4ee
1d	.	2ff
.	2b-	.
.	.	2f
.	4a	.
=28	=28	=28
1d	2b-	4r
.	.	4dd
.	2B-	4dd
.	.	4dd
1c	4r	4.ee
.	4g	.
.	.	8ff
.	4g	8gg
.	.	8ff
.	4g	8ee
.	.	8dd
=29	=29	=29
1f	4.a	8cc
.	.	8b-
.	.	8a
.	8b-	8g
.	8cc	2a
.	8b-	.
.	8a	.
.	8g	.
1f	8f	4r
.	8e	.
.	8d	4a
.	8c	.
.	2d	8a
.	.	8g
.	.	8f
.	.	8e
=30	=30	=30
1f	4r	2d
.	4d	.
.	8d	2dd
.	8c	.
.	8B-	.
.	8A	.
1e	2G	2.gg
.	2g	.
.	.	4ff
=31	=31	=31
1c	2.cc	4ee
.	.	4dd
.	.	2ee
.	4b-	.
1d	4a	4ff
.	4g	4ee
.	2a	4dd
.	.	4cc
=32	=32	=32
1d	4b-	2dd
.	4a	.
.	4g	2dd
.	4f	.
1c	2g	2.ee
.	2g	.
.	.	4gg
=33	=33	=33
1A	2.a	4ff
.	.	8ee
.	.	8dd
.	.	8cc
.	.	8b-
.	4cc	8a
.	.	8g
1B-	4b-	2f
.	8a	.
.	8g	.
.	8f	2d
.	8e	.
.	8d	.
.	8c	.
=34	=34	=34
1d	2B-	2r
.	2G	2dd
1c	2r	2.ee
.	2g	.
.	.	4dd
=35	=35	=35
1A	2.a	4cc
.	.	8dd
.	.	8ee
.	.	2ff
.	4g	.
1B-	4f	2r
.	8g	.
.	8a	.
.	2b-	[2gg
=36	=36	=36
1A	2r	2gg]
.	1cc	2ff
1G	.	4.ee
.	.	8ff
.	2b-	2gg
=37	=37	=37
1A	4.a	2cc
.	8b-	.
.	2cc	4r
.	.	4ff
1B-	2f	2dd
.	4r	2gg
.	4b-	.
=38	=38	=38
1c	2g	4r
.	.	4cc
.	2cc	2a
1B-	4r	2b-
.	4f	.
.	2d	[2g
=39	=39	=39
1A	2e	2g]
.	1c	4f#
.	.	4e
1A	.	1f#
.	4Bn	.
.	4A	.
=40	=40	=40
1G	1Bn	2g
.	.	2gg
1c	2c	4ee
.	.	2ff
.	2cc	.
.	.	4ee
=41	=41	=41
1d	4a	2.dd
.	2b-	.
.	4a	4dd
1e	2.g	2gg
.	.	2cc
.	4g	.
=42	=42	=42
1f	2cc	2r
.	2f	2dd
1e	2r	2ee
.	2g	[2cc
=43	=43	=43
1d	2a	2cc]
.	1f	4bn
.	.	4a
1d	.	1bn
.	4e	.
.	4d	.
=44	=44	=44
1c	1e	2cc
.	.	2g
1F	2f	2r
.	2c	2a
=45	=45	=45
1G	2r	4g
.	.	4a
.	2d	4b-
.	.	4g
1A	4c	2cc
.	4d	.
.	4e	[2a
.	4c	.
=46	=46	=46
1B-	2f	2a]
.	1d	2g
1A	.	2.a
.	2c	.
.	.	4a
=47	=47	=47
0G	2.d	4b-
.	.	4cc
.	.	2dd
.	4d	.
.	4e	2g
.	4f	.
.	2g	[2b-
=48	=48	=48
[0F	[0c	2b-]
.	.	4a
.	.	4g
.	.	[1a
=49	=49	=49
0F;]	0c;]	0a;]
==	==	==
*-	*-	*-
!!!CDT: /1562/~5//-/1621/10/16
!!!COA: von Reincken
!!!OCY: Nederlandse
!!!ODT: ?
!!!AFR: cantus firmus canon
!!!AST: polyphony
!!!AMT: simple quadruple
!!!AIN: organ
!!!YEP: David Huron and Denis Collins
!!!YEN: Canada
!!!EEV: 1.0
!!!RDT: 1995 June 3
!!!YED: 1995 August 31
